!!!OTL: NENNE NICHT DAS SCHICKSAL GRAUSAM
!!!ARE: Europa, Mitteleuropa, Deutschland
!!!SCT: F1070
!!!YEM: Copyright 1995, estate of Helmut Schaffrath.
**kern
*ICvox
*Ivox
*M4/4
*k[f#]
*G:
{8.g
16b
=1
4dd
4d
4d
4d
=2
4e
4d
4r}
{8.d
16g
=3
4g
8f#
8a
4a
8g
8b
=4
2a
2r}
=5
{2dd
2dd
=6
4.dd
16ee
16ff#
4gg
4dd
=7
8dd
8cc
4b
2r}
=8
{2ee
2ee
=9
4.ee
16ff#
16gg#
4aa
4ee
=10
4dd
4cc
2r}
=11
{2ee
2ff#
=12
2.gg}
{8.ee
16g
=13
2g
8b
8a
8g
8a
=14
2g
4r}
==
!!!AGN: Trost - Lied
!!!ONB: ESAC (Essen Associative Code) Database: FINK
!!!AMT: simple quadruple
!!!AIN: vox
!!!EED: Helmut Schaffrath
!!!EEV: 1.0
*-
